X:2
T:Ill Wind
C:Arlen-Koehler
L:1/4
M:C
I:linebreak $
K:Bb
"Bb6" B4 |"Aø" d c"Ab7b5" _A _A |"G7" G4 |"Ebm" _d c"Ab7" B _G |$"Dm" F2-"Gm" F d |
"Cø" f/e/ _G-"B7" G _A Ox/||"Bb6" F2"Db7" (3_A _A _A ||1"Cm" F4 "B7" x4:|2
"Cm" F3"B7" z/ ^c/ ||$"D7" d/ D ^c/"Am" d/ D c/ |"Fo" d/ D ^c/"D7" d D |"Dm" (3d d d"G7" d =e |
"Dm" d2-"G7" d e |$"D7" d/ D e/"Am" d/ D e/ |"Fo" d/ D e/"D7" d D |"Dm" (3d G G"G7" G3/2 G/ |
"Cø" e _G"B7" "_D.C. al Coda" F2 ||$Ox/"Bb6" B2"B6" (3_A _A _A |"Bb6" F2-"B" F c |"Bb" B4 | z4 |]

